X: 15476
T: Glencolmcille
R: reel
M: 4/4
K: Dmajor
DADE FED2|Adcd BAFA|BE E2 DE E2|GFED BEGB|
DADE FED2|Adcd BAFA|B2 ec dBAG|1 FA E/F/E D3A:|2 FA E/F/E D3e||
fded cAAe|fdef g2ag|fded cAAc|BFAF Dcde|
fded cAAe|fdef g2fg|afge fded|1 cABc d3e:|2 cABc d3 z||

